X:21
T:Polska från Västergötland
T:Svenska Folkdansar H1 nr 21
O:Västergötland
B:Traditioner av Svenska Folkdansar Häfte 1, nr 21
R:Polska
Z:Nils L
U:I=invertedturn
M:3/4
L:1/8
K:Am
A2 c>B A>B | Ic2 e>d B>d | c2 c>B AB | ^D2 E4 ::
c2 e>d B>d | Ic2 e>c A2 | c2 e>d B>d | Ic2 e>c A2 |
c2 c>B A>B | ^G2 A4 :|

